X:1
T:Title
%%score { ( 1 3 ) | ( 2 4 ) }
L:1/8
Q:1/4=188
M:4/2
K:E
V:1 treble nm="Grand Piano"
V:3 treble 
V:2 bass 
V:4 bass 
V:1
 [EB]4 [B,FB]4 [B,EG]4 [B,E]4 | [CFA]4 [B,FA]4 [B,EG]4 [B,DF]4 | [B,EG]4 [CE^A]4 [B,DB]4 [B,FB]4 | %3
w: Prince~Albert * * *|||
 z4 c4 z8 | [Ee]4 [FB]4 G4 B4 | c4 [Ad]4 [Ge]4 [EB]4 | z8 [CA]4 z4 | %7
w: ||||
[M:12/4] z4 [DF]2- [DF]2 z2 z2 z12 |[M:8/4] [A,CE]8 [G,B,E]8 |] %9
w: ||
V:2
 [E,G,]4 D,4 E,4 G,4 | F,4 D,4 E,4 B,,4 | E,4 C,4 G,4 D,4 | [E,B,]4 .[F,^A,F]4 [B,,B,]8 | %4
 [G,B,]4 [D,B,]4 [E,B,E]4 [G,B,E]4 | [A,E]4 [F,A,]4 [E,B,]4 [E,G,]4 | %6
 [A,,A,]4 [B,,F,]4 [C,E,]2 D,2 z2 E2 |[M:12/4] .A,,6 A,2 E,4- E,4 z2 z6 |[M:8/4] A,,8 E,8 |] %9
V:3
 x16 | x16 | x16 | [Gc]4 z2 E2 [DB]8 | x16 | x16 | [Ec]4 [DB]4 z2 F,2 .[G,B,G]4 | %7
[M:12/4] [CEF]4 B,2 z2 [G,E]4- [G,E]4 z2 z6 |[M:8/4] x16 |] %9
V:4
 x16 | x16 | x16 | x16 | x16 | x16 | z8 z4 E,4 |[M:12/4] z4 B,,2- B,,2 z2 z2 z12 |[M:8/4] x16 |] %9

